img/search.svg

<svg height="17" viewBox="0 0 17 17" width="17" xmlns="http://www.w3.org/2000/svg"><path d="m16.958 15.527-5.208-5.207a6.455 6.455 0 0 0 1.25-3.82 6.5 6.5 0 1 0 -6.5 6.5 6.465 6.465 0 0 0 3.839-1.263l5.205 5.204zm-10.458-4.527c-2.481 0-4.5-2.019-4.5-4.5s2.019-4.5 4.5-4.5 4.5 2.019 4.5 4.5-2.019 4.5-4.5 4.5z" fill="#fff"/></svg>

<svg xmlns="http://www.w3.org/2000/svg" xmlns:xlink="http://www.w3.org/1999/xlink" width="17" height="17" viewBox="0 0 17 17"><path fill="#fff" d="M16.958 15.527L11.75 10.32A6.455 6.455 0 0 0 13 6.5 6.5 6.5 0 1 0 6.5 13a6.465 6.465 0 0 0 3.839-1.263l5.205 5.204 1.414-1.414zM6.5 11C4.019 11 2 8.981 2 6.5S4.019 2 6.5 2 11 4.019 11 6.5 8.981 11 6.5 11z"/></svg>
